tools/download-figma-icons/icons/outlined-large/remote.svg

<svg width="64" height="64" viewBox="0 0 64 64" fill="none" xmlns="http://www.w3.org/2000/svg">
<path fill-rule="evenodd" clip-rule="evenodd" d="M63.451 31.3398L32.9512 6.33995C32.3982 5.88695 31.6012 5.88695 31.0492 6.33995L0.549476 31.3398C-0.0915187 31.8648 -0.185518 32.8107 0.340478 33.4507C0.865474 34.0897 1.80947 34.1857 2.45146 33.6597L32.0002 9.43992L61.549 33.6597C61.828 33.8887 62.165 33.9997 62.499 33.9997C62.932 33.9997 63.363 33.8127 63.66 33.4507C64.185 32.8107 64.092 31.8648 63.451 31.3398ZM53.5 30.9999C52.672 30.9999 52 31.6719 52 32.4998V55.7627H40.1841C39.3551 55.7627 38.6841 56.4347 38.6841 57.2627C38.6841 58.0907 39.3551 58.7626 40.1841 58.7626H53.5C54.328 58.7626 55 58.0907 55 57.2627V32.4998C55 31.6719 54.328 30.9999 53.5 30.9999ZM28.0002 46.6159C28.0002 44.407 29.7912 42.616 32.0001 42.616C34.2101 42.616 36.0001 44.407 36.0001 46.6159C36.0001 48.2939 34.9651 49.7249 33.5001 50.3189V57.2619C33.5001 58.0909 32.8281 58.7618 32.0001 58.7618H10.5003C9.67231 58.7618 9.00031 58.0909 9.00031 57.2619V32.5C9.00031 31.6721 9.67231 31.0001 10.5003 31.0001C11.3283 31.0001 12.0003 31.6721 12.0003 32.5V55.7619H30.5001V50.3189C29.0352 49.7249 28.0002 48.2939 28.0002 46.6159ZM23.0724 37.6873C22.4864 38.2733 22.4864 39.2223 23.0724 39.8083C23.6584 40.3943 24.6074 40.3943 25.1934 39.8083C27.0114 37.9903 29.4284 36.9883 32.0013 36.9883C34.5723 36.9883 36.9893 37.9903 38.8073 39.8083C39.1003 40.1013 39.4843 40.2483 39.8683 40.2483C40.2523 40.2483 40.6353 40.1013 40.9283 39.8083C41.5143 39.2223 41.5143 38.2733 40.9283 37.6873C38.5443 35.3023 35.3733 33.9883 32.0013 33.9883C28.6284 33.9883 25.4574 35.3023 23.0724 37.6873ZM47.0571 33.6809C46.7641 33.9739 46.3801 34.1199 45.9961 34.1199C45.6121 34.1199 45.2281 33.9739 44.9351 33.6809C37.8032 26.548 26.1983 26.55 19.0653 33.6809C18.4793 34.2659 17.5303 34.2659 16.9444 33.6809C16.3584 33.0949 16.3584 32.1449 16.9444 31.559C25.2473 23.258 38.7542 23.257 47.0571 31.559C47.6421 32.1449 47.6421 33.0949 47.0571 33.6809Z" fill="black"/>
</svg>

<svg xmlns="http://www.w3.org/2000/svg" width="64" height="64" fill="none" viewBox="0 0 64 64"><path fill="currentColor" fill-rule="evenodd" d="m63.451 31.34-30.5-25a1.5 1.5 0 0 0-1.902 0l-30.5 25a1.499 1.499 0 1 0 1.902 2.32l29.55-24.22 29.548 24.22a1.498 1.498 0 1 0 1.902-2.32M53.5 31a1.5 1.5 0 0 0-1.5 1.5v23.263H40.184a1.5 1.5 0 1 0 0 3H53.5a1.5 1.5 0 0 0 1.5-1.5V32.5a1.5 1.5 0 0 0-1.5-1.5M28 46.616a4 4 0 0 1 8 0 3.995 3.995 0 0 1-2.5 3.703v6.943a1.5 1.5 0 0 1-1.5 1.5H10.5a1.5 1.5 0 0 1-1.5-1.5V32.5a1.5 1.5 0 0 1 3 0v23.262h18.5v-5.443a4 4 0 0 1-2.5-3.703m-4.928-8.929a1.5 1.5 0 1 0 2.121 2.121 9.56 9.56 0 0 1 6.808-2.82 9.56 9.56 0 0 1 6.806 2.82 1.496 1.496 0 0 0 2.121 0 1.5 1.5 0 0 0 0-2.12 12.54 12.54 0 0 0-8.927-3.7 12.55 12.55 0 0 0-8.929 3.7m23.985-4.006a1.5 1.5 0 0 1-1.06.439c-.385 0-.769-.146-1.062-.44-7.132-7.132-18.737-7.13-25.87 0a1.5 1.5 0 0 1-2.12-2.121c8.302-8.301 21.81-8.302 30.112 0a1.5 1.5 0 0 1 0 2.122" clip-rule="evenodd"/></svg>
